Site26/img/svg/yt-ico.svg

<svg width="19" height="14" viewBox="0 0 19 14" fill="none" xmlns="http://www.w3.org/2000/svg">
<path d="M12.4246 6.0116L8.22705 3.83576C7.98569 3.71065 7.70041 3.71532 7.46384 3.84812C7.22713 3.98105 7.08594 4.21588 7.08594 4.47653V8.79086C7.08594 9.05028 7.22626 9.2847 7.46138 9.41777C7.58416 9.48726 7.72027 9.52214 7.85668 9.52214C7.98163 9.52214 8.10688 9.49289 8.22212 9.43411L12.4198 7.29576C12.669 7.16873 12.8245 6.92333 12.8257 6.65512C12.8267 6.38692 12.673 6.14041 12.4246 6.0116ZM8.19936 8.24814V5.02365L11.3365 6.6499L8.19936 8.24814Z" fill="black"/>
<path d="M18.8602 3.21776L18.8593 3.20952C18.8432 3.06464 18.683 1.77594 18.0217 1.12047C17.2574 0.349503 16.3908 0.255844 15.9741 0.210938C15.9396 0.20723 15.908 0.203796 15.8797 0.200226L15.8465 0.19693C13.3347 0.0238953 9.54128 0.000274658 9.5033 0.000137329L9.49996 0L9.49663 0.000137329C9.45865 0.000274658 5.66525 0.0238953 3.1308 0.19693L3.09732 0.200226C3.07035 0.203659 3.04064 0.206818 3.00831 0.210388C2.59634 0.255432 1.73906 0.349228 0.972523 1.14807C0.342681 1.79654 0.160613 3.05763 0.141914 3.19936L0.139739 3.21776C0.134086 3.27805 0 4.71327 0 6.15413V7.50105C0 8.94191 0.134086 10.3771 0.139739 10.4376L0.140754 10.4466C0.156844 10.5892 0.316878 11.8542 0.975132 12.51C1.69383 13.2551 2.60257 13.3537 3.09137 13.4068C3.16864 13.4151 3.23517 13.4223 3.28054 13.4298L3.32447 13.4356C4.77477 13.5663 9.32195 13.6307 9.51475 13.6333L9.52055 13.6335L9.52635 13.6333C9.56432 13.6332 13.3576 13.6096 15.8694 13.4366L15.9026 13.4333C15.9344 13.4293 15.97 13.4257 16.0092 13.4219C16.4188 13.3807 17.2714 13.2951 18.0274 12.5071C18.6572 11.8585 18.8395 10.5974 18.858 10.4558L18.8602 10.4374C18.8658 10.377 19.0001 8.94191 19.0001 7.50105V6.15413C18.9999 4.71327 18.8658 3.27818 18.8602 3.21776ZM17.8865 7.50105C17.8865 8.83466 17.7636 10.2081 17.752 10.3342C17.7047 10.6815 17.5127 11.4793 17.2058 11.7953C16.7326 12.2885 16.2466 12.3374 15.8917 12.3729C15.8488 12.3772 15.8091 12.3813 15.7732 12.3856C13.3437 12.552 9.69348 12.5776 9.52533 12.5785C9.33674 12.5759 4.85609 12.511 3.45 12.3872C3.37795 12.3761 3.30011 12.3676 3.21807 12.3588C2.80189 12.3136 2.23221 12.2518 1.79414 11.7953L1.78385 11.7849C1.48234 11.4873 1.29578 10.7412 1.24838 10.3383C1.23954 10.243 1.11342 8.85333 1.11342 7.50105V6.15413C1.11342 4.82204 1.23606 3.45012 1.24794 3.32144C1.30433 2.91234 1.50002 2.1628 1.79414 1.85985C2.28178 1.35173 2.79595 1.29543 3.13602 1.25821C3.16849 1.25464 3.19879 1.25134 3.22676 1.24791C5.69163 1.08064 9.36805 1.05579 9.49996 1.05482C9.63187 1.05565 13.307 1.08064 15.75 1.24791C15.78 1.25148 15.8127 1.25505 15.848 1.2589C16.1977 1.29666 16.7264 1.35379 17.2116 1.84406L17.2161 1.84859C17.5176 2.14618 17.7041 2.90533 17.7515 3.31636C17.76 3.40631 17.8865 4.79897 17.8865 6.15413V7.50105Z" fill="black"/>
</svg>

<svg width="19" height="14" fill="none" xmlns="http://www.w3.org/2000/svg">
  <path d="M12.4246 6.0116 8.2271 3.8358a.8013.8013 0 0 0-.7633.0123c-.2367.133-.3779.3678-.3779.6284V8.791c0 .2594.1404.4938.3755.6269a.8017.8017 0 0 0 .7607.0163l4.1977-2.1383c.2492-.127.4047-.3725.4059-.6407.001-.2682-.1527-.5147-.4011-.6435ZM8.1994 8.2481V5.0236L11.3365 6.65 8.1994 8.2481Z" fill="#000"/>
  <path d="m18.8602 3.2178-.0009-.0083c-.0161-.1449-.1763-1.4336-.8376-2.089-.7643-.771-1.6309-.8647-2.0476-.9096a5.3416 5.3416 0 0 1-.0944-.0107L15.8465.197C13.3347.024 9.5413.0003 9.5033.0001L9.5 0l-.0034.0001C9.4586.0003 5.6652.024 3.1308.197l-.0335.0033c-.027.0035-.0567.0066-.089.0102-.412.045-1.2692.1388-2.0358.9377C.3427 1.7965.1606 3.0576.142 3.1994l-.0022.0184C.1341 3.278 0 4.7133 0 6.154v1.347c0 1.4408.134 2.876.1397 2.9365l.001.009c.0161.1426.1762 1.4076.8344 2.0634.7187.7451 1.6275.8437 2.1163.8968.0772.0083.1438.0155.1891.023l.044.0058c1.4503.1307 5.9974.1951 6.1902.1977l.0059.0002.0058-.0002c.038-.0001 3.8312-.0237 6.343-.1967l.0332-.0033a3.8765 3.8765 0 0 1 .1066-.0114c.4096-.0412 1.2622-.1268 2.0182-.9148.6298-.6486.8121-1.9097.8306-2.0513l.0022-.0184c.0056-.0604.1399-1.4955.1399-2.9364V6.1542c-.0002-1.4408-.1343-2.876-.1399-2.9363Zm-.9737 4.2833c0 1.3336-.1229 2.707-.1345 2.8331-.0473.3473-.2393 1.1451-.5462 1.4611-.4732.4932-.9592.5421-1.3141.5776a6.335 6.335 0 0 0-.1185.0127c-2.4295.1664-6.0797.192-6.2479.1929-.1886-.0026-4.6692-.0675-6.0753-.1913a5.1997 5.1997 0 0 0-.232-.0284c-.4161-.0452-.9858-.107-1.4239-.5635l-.0103-.0104c-.3015-.2976-.488-1.0437-.5354-1.4466-.0089-.0953-.135-1.485-.135-2.8373V6.1542c0-1.332.1227-2.704.1345-2.8327.0564-.409.2521-1.1586.5462-1.4616.4877-.508 1.0018-.5644 1.342-.6016.0324-.0036.0627-.0069.0907-.0103C5.6916 1.0806 9.368 1.0558 9.5 1.055c.1319.0008 3.807.0257 6.25.193.03.0036.0627.0071.098.011.3497.0378.8784.0949 1.3636.5852l.0045.0045c.3015.2976.488 1.0567.5354 1.4678.0085.09.135 1.4826.135 2.8377v1.347Z" fill="#000"/>
</svg>
